X:1779
T: Skallbogumman
R:Polska
Z:Göran Hed 2010-03-22
O:Ovansjö, Gästrikland
M: 3/4
L: 1/8
K:C
c2C2c2| BA e>c BA|^GAE4| c2C2c2|
BA e>c BA|^GAE4|: ed/2e/2f2e2| d>d ee cB|
A>^G AB c>B| AcB4| ed/2e/2f2e2| d3/2d/2 ee cB|
A>^G Ac BG| E/2^G/2B/2G/2A4:|
(:musicend:)
(:music:)
